crypto/bnbdown.svg

<svg fill="none" height="32" viewBox="0 0 32 32" width="32" xmlns="http://www.w3.org/2000/svg" xmlns:xlink="http://www.w3.org/1999/xlink"><linearGradient id="a" gradientUnits="userSpaceOnUse" x1="26" x2="6" y1="6" y2="26"><stop offset="0" stop-color="#f1bb03"/><stop offset="1" stop-color="#f2bc03"/></linearGradient><path d="m16 32c8.8366 0 16-7.1634 16-16 0-8.83656-7.1634-16-16-16-8.83656 0-16 7.16344-16 16 0 8.8366 7.16344 16 16 16z" fill="#0c0d13"/><path d="m12.116 14.404 3.884-3.884 3.886 3.886 2.26-2.26-6.146-6.146-6.144 6.144zm-6.116 1.596 2.26-2.26 2.26 2.26-2.26 2.26zm6.116 1.596 3.884 3.884 3.886-3.886 2.26 2.259-6.146 6.147-6.144-6.144-.003-.003zm9.364-1.596 2.26-2.26 2.26 2.26-2.26 2.26zm-3.188-.002h.002v.002l-2.294 2.294-2.291-2.29-.004-.004.004-.003.401-.402.195-.195 1.695-1.694 2.293 2.293z" fill="url(#a)"/></svg>

<svg width="32" height="32" fill="none" xmlns="http://www.w3.org/2000/svg"><path d="M16 32c8.837 0 16-7.163 16-16S24.837 0 16 0 0 7.163 0 16s7.163 16 16 16Z" fill="#0C0D13"/><path d="M12.116 14.404 16 10.52l3.886 3.886 2.26-2.26L16 6l-6.144 6.144 2.26 2.26ZM6 16l2.26-2.26L10.52 16l-2.26 2.26L6 16Zm6.116 1.596L16 21.48l3.886-3.886 2.26 2.259L16 26l-6.144-6.144-.003-.003 2.263-2.257ZM21.48 16l2.26-2.26L26 16l-2.26 2.26L21.48 16Zm-3.188-.002h.002V16L16 18.294l-2.291-2.29-.004-.004.004-.003.401-.402.195-.195L16 13.706l2.293 2.293-.001-.001Z" fill="url(#a)"/><defs><linearGradient id="a" x1="26" y1="6" x2="6" y2="26" gradientUnits="userSpaceOnUse"><stop stop-color="#F1BB03"/><stop offset="1" stop-color="#F2BC03"/></linearGradient></defs></svg>
